X: 5299
T: Brother's
R: jig
M: 6/8
K: Edorian
|:"Emin" B2e efe|B2e efe|"D" A2d fed|A2d fed|
"Emin" B2e efe|b,2e g2a|"C" bag "D" fed|1 "Emin" e3 e2d:|2 "Emin" e3 ega||
|:"G" b2b bag|"D" a2a agf|"C" g2g gfe|"Bmin" f2f fga|
"Emin" bc'b bag|"D" aba agf|"C" gfe "D" fed|1 "Emin" e3 fga:|2 "Emin" e3 e2d||

